X: 1013
T: Devil's Dream (A5)
N: page A5
N: heptatonic
R: Reel
M: 2/4
L: 1/16
K: A
Q:1/4=60
"A"agae agae|agae fedc|"Bm"dfBf dfBf|dfBf agfe|
"A"agae agae|agae fedc|"Bm"dcBc defe|"E"dcBc "A"A2e2::
"A" ceAe ceAe|ceAe fedc|"Bm"dfBf dfBf|
dfBf agfe|"A"ceAe ceAe|ceAe fedc|
"Bm"dcBc defe|[1 "E"dcBc "A"A2e2:|[2 "E"dcBc "A" A4|
